X: 44
T: the Tenpenny Bit
O: Trad, Ireland
R: jig
S: O'Neill's "1850" (Music of Ireland), 1903
B: Harding’s "All Round Collection" 1905, under the title “Made in Ireland”
N: Similar to The Three Little Drummers
Z: 1997 by John Chambers <jc:trillian.mit.edu>
M: 6/8
L: 1/8
K: ADor
   e \
| "Am"eAA eAA | "G"BAB GBd | "Am"eAA eAA | "G"def g[af]g \
| "Am"eAA eAA | "G"BAB GBd | "G"edB g[dB]B | "G"BAG "Am"A2 :|
|: B \
| "Am"A2a aga | "G"bge dBG | "Am"A2a aga | "G"bge g2d \
| "Am"e2a aga | "G"bge dBd | "G"edB g[dB]B | "G"BAG "Am"A2 :|
%%text A major chords work just as well.

%%sep 1 1 500

